X: 171
T: Oxford Waits
T: Longways for as &c.
%R: reel
B: Daniel Wright "Wright's Compleat Collection of Celebrated Country Dances" 1740 p.86
S: http://library.efdss.org/cgi-bin/dancebooks.cgi
Z: 2014 John Chambers <jc:trillian.mit.edu>
M: C|
L: 1/8
K: G
% - - - - - - - - - - - - - - - - - - - - - - - - -
GABc |\
d2G2 d2g2 | f2g2 d2cB | A2d2 c2B2 | A2G2 ded2 |\
d2g2 ded2 | d2a2 ded2 |
d2ba gfed | cBA2 aba2 |\
a2d2 A2^c2 | d2D2 :|\
defg |\
a2d2 f2ed | g2G2 GABc | d2gf edcB | A2D2 GA B2 |
E2e2 cBA2 | F2f2 Bcd2 | G2g2 A2a2 | B2b2 GABc |\
d2d2 d2b2 | f2g2 dcde | d2cB A4 | G4 |]
% - - - - - - - - - - - - - - - - - - - - - - - - -
%%begintext align
%% The 1st Man clap hands twice to his partner, and
%% turn her by the right hand twice quite round .|
%% the same sides :| meet all four corner ways, and
%% turn single, then right and left quite round
%% with the 2d Cu. and turn partners .| the 1st Cu.
%% cast behind the 2d Cu. and 1st and 2d Cu. take
%% hands and foot it round and turn partners :|
%%endtext
% - - - - - - - - - - - - - - - - - - - - - - - - -
%%sep 2 4 300
